;Sliced by ideaMaker 4.3.3.6560, 2025-05-29 18:19:27 UTC+0300
;Dimension: 305.000 305.000 300.000 0.400 0.400
;Plate Shape: 0
;Origin Center: 0
;Extruder Offset #1: 0.000 0.000
;Filament Diameter #1: 1.750
;Filament Diameter #2: 1.750
;Filament Compensation #1: 90.00
;Filament Compensation #2: 90.00
;Filament Density #1: 1120.00
;Filament Density #2: 1240.00
;Filament Type #1: ABS
;Filament Type #2: PLA
;Filament Name #1: [Raise3D] ABS 1.75mm
;Filament Name #2: [Raise3D] PLA 1.75mm
;Firmware: Raise3D Pro2
;Bounding Box: 141.925 229.086 100.850 203.835 0.000 13.620
;Model Gap: 0.150
M221 T0 S90.00
M140 S100.00
M104 T0 S250.00
M109 T0 S250.00
T0
M190 S100.00
G21
G90
M82
M107
G28 X0 Y0
G28 Z0
G1 Z15.0 F300
G92 E0
G1 F140 E29
G1 X20 Y0 F140 E30
G92 E0
G1 F6000.0
M117 Printing...
M1001
;TOTAL_NUM: 2
;PRINTING_TIME: 0
;REMAINING_TIME: 6330
M106 S0
;LAYER:-2
;Z:0.500
;HEIGHT:0.500
;PRINTING: NON-OBJECT
;PRINTING_ID: -1
G0 F6000 X143.736 Y125.447
G0 F300 Z0.500
;TYPE:RAFT
;WIDTH:0.800
G1 F480 X143.992 Y125.184 E0.0610
G1 X144.334 Y124.890 E0.1360
G1 X144.916 Y124.498 E0.2527
G1 X145.362 Y124.269 E0.3361
G1 X145.733 Y124.124 E0.4023
G1 X146.088 Y124.017 E0.4640
G1 X146.562 Y123.920 E0.5445
G1 X147.356 Y123.857 E0.6769
G1 X148.386 Y123.854 E0.8482
G1 X149.451 Y123.901 E1.0255
G1 X149.947 Y123.844 E1.1085
G1 X150.426 Y123.716 E1.1910
G1 X150.882 Y123.520 E1.2735
G1 X151.305 Y123.259 E1.3562
G1 X151.685 Y122.939 E1.4388
G1 X152.015 Y122.565 E1.5217
G1 X152.401 Y122.071 E1.6260
G1 X152.764 Y121.696 E1.7128
G1 X153.044 Y121.458 E1.7739
G1 X153.573 Y121.093 E1.8808
G1 X154.015 Y120.859 E1.9640
G1 X154.382 Y120.708 E2.0300
G1 X154.819 Y120.572 E2.1061
G1 X155.280 Y120.478 E2.1843
G1 X155.993 Y120.417 E2.3033
G1 X157.767 Y120.417 E2.5983
G1 X158.137 Y120.438 E2.6600
G1 X158.929 Y120.538 E2.7927
G1 X159.428 Y120.520 E2.8758
G1 X159.916 Y120.430 E2.9583
G1 X160.386 Y120.270 E3.0408
G1 X160.828 Y120.043 E3.1235
G1 X161.231 Y119.755 E3.2059
G1 X161.589 Y119.411 E3.2884
G1 X161.893 Y119.017 E3.3712
G1 X162.137 Y118.584 E3.4538
G1 X163.243 Y115.614 E3.9809
G1 X163.391 Y115.259 E4.0448
G1 X163.533 Y114.968 E4.0987
G1 X163.990 Y114.194 E4.2482
G1 X164.555 Y113.495 E4.3976
G1 X165.206 Y112.889 E4.5455
G1 X165.898 Y112.404 E4.6861
G1 X166.538 Y112.051 E4.8076
G1 X187.895 Y101.991 E8.7336
G1 X188.404 Y101.776 E8.8255
G1 X189.212 Y101.510 E8.9670
G1 X190.006 Y101.340 E9.1020
G1 X190.665 Y101.264 E9.2123
G1 X191.503 Y101.250 E9.3517
G1 X191.905 Y101.276 E9.4187
G1 X192.404 Y101.338 E9.5023
G1 X192.821 Y101.416 E9.5729
G1 X193.673 Y101.650 E9.7198
G1 X194.254 Y101.873 E9.8233
G1 X194.765 Y102.108 E9.9168
G1 X208.674 Y109.208 E12.5138
G1 X209.169 Y109.487 E12.6083
G1 X209.688 Y109.836 E12.7123
G1 X209.949 Y110.035 E12.7669
G1 X210.399 Y110.431 E12.8666
G1 X210.593 Y110.625 E12.9122
G1 X211.035 Y111.133 E13.0242
G1 X211.221 Y111.376 E13.0751
G1 X211.577 Y111.919 E13.1831
G1 X211.711 Y112.158 E13.2286
G1 X212.036 Y112.845 E13.3550
G1 X212.241 Y113.399 E13.4533
G1 X228.400 Y163.281 E22.1731
G1 X228.576 Y164.063 E22.3064
G1 X228.640 Y164.507 E22.3810
G1 X228.678 Y165.007 E22.4644
G1 X228.686 Y165.349 E22.5213
G1 X228.659 Y165.982 E22.6266
G1 X228.546 Y166.795 E22.7631
G1 X228.456 Y167.209 E22.8336
G1 X228.236 Y167.953 E22.9626
G1 X228.017 Y168.516 E23.0631
G1 X227.771 Y169.045 E23.1601
G1 X224.010 Y176.394 E24.5330
G1 X223.803 Y176.748 E24.6012
G1 X223.490 Y177.183 E24.6903
G1 X223.131 Y177.576 E24.7788
G1 X222.845 Y177.837 E24.8432
G1 X222.510 Y178.180 E24.9229
G1 X222.219 Y178.582 E25.0055
G1 X221.989 Y179.022 E25.0880
G1 X221.825 Y179.493 E25.1710
G1 X221.724 Y180.066 E25.2677
G1 X221.647 Y180.709 E25.3754
G1 X221.569 Y181.058 E25.4349
G1 X221.352 Y181.688 E25.5457
G1 X217.765 Y188.759 E26.8643
G1 X217.494 Y189.245 E26.9568
G1 X217.058 Y189.902 E27.0879
G1 X216.576 Y190.499 E27.2155
G1 X216.084 Y191.000 E27.3323
G1 X215.714 Y191.326 E27.4143
G1 X202.371 Y202.030 E30.2590
G1 X202.066 Y202.259 E30.3225
G1 X201.437 Y202.652 E30.4458
G1 X200.752 Y202.975 E30.5718
G1 X200.427 Y203.096 E30.6294
G1 X199.612 Y203.317 E30.7699
G1 X198.819 Y203.421 E30.9029
G1 X198.483 Y203.434 E30.9588
G1 X197.722 Y203.400 E31.0855
G1 X197.169 Y203.325 E31.1783
G1 X182.899 Y200.669 E33.5921
G1 X182.157 Y200.485 E33.7193
G1 X181.376 Y200.204 E33.8573
G1 X180.677 Y199.856 E33.9872
G1 X180.017 Y199.428 E34.1180
G1 X179.709 Y199.192 E34.1825
G1 X179.309 Y198.838 E34.2713
G1 X179.025 Y198.556 E34.3379
G1 X166.041 Y183.612 E37.6301
G1 X165.699 Y183.272 E37.7103
G1 X165.300 Y182.976 E37.7929
G1 X164.863 Y182.742 E37.8753
G1 X164.396 Y182.575 E37.9578
G1 X163.909 Y182.477 E38.0404
G1 X163.413 Y182.451 E38.1230
G1 X162.918 Y182.497 E38.2057
G1 X162.437 Y182.615 E38.2881
G1 X161.977 Y182.801 E38.3706
G1 X161.545 Y183.055 E38.4539
G1 X160.511 Y183.926 E38.6788
G1 X160.084 Y184.201 E38.7632
G1 X159.762 Y184.367 E38.8235
G1 X159.065 Y184.632 E38.9475
G1 X158.518 Y184.763 E39.0410
G1 X158.145 Y184.813 E39.1036
G1 X157.647 Y184.837 E39.1865
G1 X147.204 Y184.828 E40.9232
G1 X146.655 Y184.788 E41.0147
G1 X146.293 Y184.726 E41.0758
G1 X145.790 Y184.588 E41.1625
G1 X145.184 Y184.340 E41.2714
G1 X144.625 Y184.023 E41.3783
G1 X144.218 Y183.721 E41.4626
G1 X143.951 Y183.483 E41.5221
G1 X143.611 Y183.120 E41.6048
G1 X143.276 Y182.678 E41.6970
G1 X142.950 Y182.123 E41.8041
G1 X142.685 Y181.501 E41.9165
G1 X142.490 Y180.813 E42.0354
G1 X142.363 Y180.020 E42.1690
G1 X142.325 Y179.371 E42.2771
G1 X142.325 Y129.507 E50.5695
G1 X142.355 Y128.857 E50.6777
G1 X142.448 Y128.143 E50.7975
G1 X142.575 Y127.598 E50.8905
G1 X142.835 Y126.853 E51.0217
G1 X143.072 Y126.373 E51.1108
G1 X143.266 Y126.054 E51.1729
G1 X143.736 Y125.447 E51.3005
G0 F6000 X144.228 Y125.458
G1 F480 X144.228 Y183.247 E60.9109
G0 F6000 X146.652 Y184.422
G1 F480 X146.652 Y124.273 E70.9137
G0 F6000 X149.076 Y124.246
G1 F480 X149.076 Y184.469 E80.9288
G0 F6000 X151.500 Y184.471
G1 F480 X151.500 Y123.561 E91.0582
G0 F6000 X153.924 Y121.314
G1 F480 X153.924 Y184.473 E101.5616
G0 F6000 X156.348 Y184.475
G1 F480 X156.348 Y120.777 E112.1546
G0 F6000 X158.772 Y120.881
G1 F480 X158.772 Y184.332 E122.7065
G0 F6000 X161.196 Y182.879
G1 F480 X161.196 Y120.221 E133.1266
G0 F6000 X163.620 Y115.645
G1 F480 X163.620 Y182.101 E144.1783
G0 F6000 X166.044 Y183.106
G1 F480 X166.044 Y112.741 E155.8800
G0 F6000 X168.468 Y111.539
G1 F480 X168.468 Y185.856 E168.2390
G0 F6000 X170.892 Y188.646
G1 F480 X170.892 Y110.397 E181.2519
G0 F6000 X173.316 Y109.256
G1 F480 X173.316 Y191.436 E194.9184
G0 F6000 X175.740 Y194.226
G1 F480 X175.740 Y108.114 E209.2389
G0 F6000 X178.164 Y106.972
G1 F480 X178.164 Y197.015 E224.2131
G0 F6000 X180.588 Y199.368
G1 F480 X180.588 Y105.830 E239.7686
G0 F6000 X183.012 Y104.688
G1 F480 X183.012 Y200.323 E255.6727
G0 F6000 X185.436 Y200.775
G1 F480 X185.436 Y103.546 E271.8420
G0 F6000 X187.860 Y102.405
G1 F480 X187.860 Y201.226 E288.2760
G0 F6000 X190.284 Y201.677
G1 F480 X190.284 Y101.670 E304.9072
G0 F6000 X192.708 Y101.761
G1 F480 X192.708 Y202.128 E321.5983
G0 F6000 X195.132 Y202.579
G1 F480 X195.132 Y102.700 E338.2083
G0 F6000 X197.556 Y103.937
G1 F480 X197.556 Y203.014 E354.6848
G0 F6000 X199.980 Y202.844
G1 F480 X199.980 Y105.175 E370.9273
G0 F6000 X202.404 Y106.412
G1 F480 X202.404 Y201.529 E386.7453
G0 F6000 X204.828 Y199.587
G1 F480 X204.828 Y107.649 E402.0346
G0 F6000 X207.252 Y108.887
G1 F480 X207.252 Y197.645 E416.7951
G0 F6000 X209.676 Y195.703
G1 F480 X209.676 Y110.281 E431.0009
G0 F6000 X212.100 Y114.133
G1 F480 X212.100 Y193.761 E444.2431
G0 F6000 X214.524 Y191.819
G1 F480 X214.524 Y121.616 E455.9179
G0 F6000 X216.948 Y129.099
G1 F480 X216.948 Y189.418 E465.9490
G0 F6000 X219.372 Y184.795
G1 F480 X219.372 Y136.581 E473.9670
G0 F6000 X221.796 Y144.064
G1 F480 X221.796 Y178.614 E479.7127
G0 F6000 X224.220 Y175.194
G1 F480 X224.220 Y151.547 E483.6452
G0 F6000 X226.644 Y159.030
G1 F480 X226.644 Y170.458 E485.5457
;PRINTING_TIME: 371
;REMAINING_TIME: 5958
M106 S128
;LAYER:-2
;Z:1.000
;HEIGHT:0.500
;PRINTING: NON-OBJECT
;PRINTING_ID: -1
G0 F300 Z1.000
G0 F6000 X227.771 Y169.045
;TYPE:RAFT
;WIDTH:0.800
G1 F960 X224.010 Y176.394 E486.9186
G1 X223.803 Y176.748 E486.9868
G1 X223.490 Y177.183 E487.0759
G1 X223.131 Y177.576 E487.1644
G1 X222.845 Y177.837 E487.2288
G1 X222.510 Y178.180 E487.3085
G1 X222.219 Y178.582 E487.3911
G1 X221.989 Y179.022 E487.4736
G1 X221.825 Y179.493 E487.5566
G1 X221.724 Y180.066 E487.6533
G1 X221.647 Y180.709 E487.7610
G1 X221.569 Y181.058 E487.8205
G1 X221.352 Y181.688 E487.9313
G1 X217.765 Y188.759 E489.2499
G1 X217.494 Y189.245 E489.3424
G1 X217.058 Y189.902 E489.4735
G1 X216.576 Y190.499 E489.6011
G1 X216.084 Y191.000 E489.7179
G1 X215.714 Y191.326 E489.7999
G1 X202.371 Y202.030 E492.6446
G1 X202.066 Y202.259 E492.7081
G1 X201.437 Y202.652 E492.8314
G1 X200.752 Y202.975 E492.9573
G1 X200.427 Y203.096 E493.0150
G1 X199.612 Y203.317 E493.1554
G1 X198.819 Y203.421 E493.2885
G1 X198.483 Y203.434 E493.3444
G1 X197.722 Y203.400 E493.4711
G1 X197.169 Y203.325 E493.5639
G1 X182.899 Y200.669 E495.9777
G1 X182.157 Y200.485 E496.1049
G1 X181.376 Y200.204 E496.2429
G1 X180.677 Y199.856 E496.3727
G1 X180.017 Y199.428 E496.5036
G1 X179.709 Y199.192 E496.5681
G1 X179.309 Y198.838 E496.6569
G1 X179.025 Y198.556 E496.7235
G1 X166.041 Y183.612 E500.0157
G1 X165.699 Y183.272 E500.0959
G1 X165.300 Y182.976 E500.1785
G1 X164.863 Y182.742 E500.2609
G1 X164.396 Y182.575 E500.3434
G1 X163.909 Y182.477 E500.4260
G1 X163.413 Y182.451 E500.5086
G1 X162.918 Y182.497 E500.5913
G1 X162.437 Y182.615 E500.6736
G1 X161.977 Y182.801 E500.7562
G1 X161.545 Y183.055 E500.8395
G1 X160.511 Y183.926 E501.0643
G1 X160.084 Y184.201 E501.1488
G1 X159.762 Y184.367 E501.2090
G1 X159.065 Y184.632 E501.3331
G1 X158.518 Y184.763 E501.4266
G1 X158.145 Y184.813 E501.4892
G1 X157.647 Y184.837 E501.5721
G1 X147.204 Y184.828 E503.3088
G1 X146.655 Y184.788 E503.4003
G1 X146.293 Y184.726 E503.4614
G1 X145.790 Y184.588 E503.5481
G1 X145.184 Y184.340 E503.6570
G1 X144.625 Y184.023 E503.7639
G1 X144.218 Y183.721 E503.8482
G1 X143.951 Y183.483 E503.9076
G1 X143.611 Y183.120 E503.9904
G1 X143.276 Y182.678 E504.0826
G1 X142.950 Y182.123 E504.1896
G1 X142.685 Y181.501 E504.3021
G1 X142.490 Y180.813 E504.4210
G1 X142.363 Y180.020 E504.5545
G1 X142.325 Y179.371 E504.6627
G1 X142.325 Y129.507 E512.9551
G1 X142.355 Y128.857 E513.0633
G1 X142.448 Y128.143 E513.1830
G1 X142.575 Y127.598 E513.2761
G1 X142.835 Y126.853 E513.4073
G1 X143.072 Y126.373 E513.4963
G1 X143.266 Y126.054 E513.5584
G1 X143.736 Y125.447 E513.6861
G1 X143.992 Y125.184 E513.7471
G1 X144.334 Y124.890 E513.8221
G1 X144.916 Y124.498 E513.9388
G1 X145.362 Y124.269 E514.0222
G1 X145.733 Y124.124 E514.0884
G1 X146.088 Y124.017 E514.1501
G1 X146.562 Y123.920 E514.2306
G1 X147.356 Y123.857 E514.3630
G1 X148.386 Y123.854 E514.5343
G1 X149.451 Y123.901 E514.7116
G1 X149.947 Y123.844 E514.7946
G1 X150.426 Y123.716 E514.8771
G1 X150.882 Y123.520 E514.9596
G1 X151.305 Y123.259 E515.0423
G1 X151.685 Y122.939 E515.1249
G1 X152.015 Y122.565 E515.2078
G1 X152.401 Y122.071 E515.3121
G1 X152.764 Y121.696 E515.3989
G1 X153.044 Y121.458 E515.4600
G1 X153.573 Y121.093 E515.5669
G1 X154.015 Y120.859 E515.6501
G1 X154.382 Y120.708 E515.7161
G1 X154.819 Y120.572 E515.7922
G1 X155.280 Y120.478 E515.8704
G1 X155.993 Y120.417 E515.9894
G1 X157.767 Y120.417 E516.2844
G1 X158.137 Y120.438 E516.3461
G1 X158.929 Y120.538 E516.4788
G1 X159.428 Y120.520 E516.5619
G1 X159.916 Y120.430 E516.6444
G1 X160.386 Y120.270 E516.7269
G1 X160.828 Y120.043 E516.8096
G1 X161.231 Y119.755 E516.8920
G1 X161.589 Y119.411 E516.9745
G1 X161.893 Y119.017 E517.0573
G1 X162.137 Y118.584 E517.1399
G1 X163.243 Y115.614 E517.6670
G1 X163.391 Y115.259 E517.7309
G1 X163.533 Y114.968 E517.7848
G1 X163.990 Y114.194 E517.9343
G1 X164.555 Y113.495 E518.0837
G1 X165.206 Y112.889 E518.2316
G1 X165.898 Y112.404 E518.3722
G1 X166.538 Y112.051 E518.4937
G1 X187.895 Y101.991 E522.4197
G1 X188.404 Y101.776 E522.5116
G1 X189.212 Y101.510 E522.6531
G1 X190.006 Y101.340 E522.7881
G1 X190.665 Y101.264 E522.8984
G1 X191.503 Y101.250 E523.0378
G1 X191.905 Y101.276 E523.1048
G1 X192.404 Y101.338 E523.1884
G1 X192.821 Y101.416 E523.2590
G1 X193.673 Y101.650 E523.4059
G1 X194.254 Y101.873 E523.5094
G1 X194.765 Y102.108 E523.6029
G1 X208.674 Y109.208 E526.1999
G1 X209.169 Y109.487 E526.2944
G1 X209.688 Y109.836 E526.3984
G1 X209.949 Y110.035 E526.4530
G1 X210.399 Y110.431 E526.5527
G1 X210.593 Y110.625 E526.5983
G1 X211.035 Y111.133 E526.7103
G1 X211.221 Y111.376 E526.7612
G1 X211.577 Y111.919 E526.8692
G1 X211.711 Y112.158 E526.9147
G1 X212.036 Y112.845 E527.0411
G1 X212.241 Y113.399 E527.1394
G1 X228.400 Y163.281 E535.8592
G1 X228.576 Y164.063 E535.9925
G1 X228.640 Y164.507 E536.0671
G1 X228.678 Y165.007 E536.1505
G1 X228.686 Y165.349 E536.2074
G1 X228.659 Y165.982 E536.3127
G1 X228.546 Y166.795 E536.4492
G1 X228.456 Y167.209 E536.5197
G1 X228.236 Y167.953 E536.6487
G1 X228.017 Y168.516 E536.7492
G1 X227.771 Y169.045 E536.8462
G0 F6000 X226.644 Y170.458
G1 F960 X226.644 Y159.030 E538.7467
G0 F6000 X224.220 Y151.547
G1 F960 X224.220 Y175.194 E542.6792
G0 F6000 X221.796 Y178.614
G1 F960 X221.796 Y144.064 E548.4249
G0 F6000 X219.372 Y136.581
G1 F960 X219.372 Y184.795 E556.4429
G0 F6000 X216.948 Y189.418
G1 F960 X216.948 Y129.099 E566.4740
G0 F6000 X214.524 Y121.616
G1 F960 X214.524 Y191.819 E578.1488
G0 F6000 X212.100 Y193.761
G1 F960 X212.100 Y114.133 E591.3910
G0 F6000 X209.676 Y110.281
G1 F960 X209.676 Y195.703 E605.5967
G0 F6000 X207.252 Y197.645
G1 F960 X207.252 Y108.887 E620.3572
G0 F6000 X204.828 Y107.649
G1 F960 X204.828 Y199.587 E635.6466
G0 F6000 X202.404 Y201.529
G1 F960 X202.404 Y106.412 E651.4646
G0 F6000 X199.980 Y105.175
G1 F960 X199.980 Y202.844 E667.7070
G0 F6000 X197.556 Y203.014
G1 F960 X197.556 Y103.937 E684.1836
G0 F6000 X195.132 Y102.700
G1 F960 X195.132 Y202.579 E700.7935
G0 F6000 X192.708 Y202.128
G1 F960 X192.708 Y101.761 E717.4846
G0 F6000 X190.284 Y101.670
G1 F960 X190.284 Y201.677 E734.1159
G0 F6000 X187.860 Y201.226
G1 F960 X187.860 Y102.405 E750.5499
G0 F6000 X185.436 Y103.546
G1 F960 X185.436 Y200.775 E766.7191
G0 F6000 X183.012 Y200.323
G1 F960 X183.012 Y104.688 E782.6233
G0 F6000 X180.588 Y105.830
G1 F960 X180.588 Y199.368 E798.1787
G0 F6000 X178.164 Y197.015
G1 F960 X178.164 Y106.972 E813.1529
G0 F6000 X175.740 Y108.114
G1 F960 X175.740 Y194.226 E827.4734
G0 F6000 X173.316 Y191.436
G1 F960 X173.316 Y109.256 E841.1400
G0 F6000 X170.892 Y110.397
G1 F960 X170.892 Y188.646 E854.1529
G0 F6000 X168.468 Y185.856
G1 F960 X168.468 Y111.539 E866.5118
G0 F6000 X166.044 Y112.741
G1 F960 X166.044 Y183.106 E878.2136
G0 F6000 X163.620 Y182.101
G1 F960 X163.620 Y115.645 E889.2653
G0 F6000 X161.196 Y120.221
G1 F960 X161.196 Y182.879 E899.6853
G0 F6000 X158.772 Y184.332
G1 F960 X158.772 Y120.881 E910.2373
G0 F6000 X156.348 Y120.777
G1 F960 X156.348 Y184.475 E920.8303
G0 F6000 X153.924 Y184.473
G1 F960 X153.924 Y121.314 E931.3337
G0 F6000 X151.500 Y123.561
G1 F960 X151.500 Y184.471 E941.4631
G0 F6000 X149.076 Y184.469
G1 F960 X149.076 Y124.246 E951.4782
G0 F6000 X146.652 Y124.273
G1 F960 X146.652 Y184.422 E961.4810
G0 F6000 X144.228 Y183.247
G1 F960 X144.228 Y125.458 E971.0913
;PRINTING_TIME: 559
;REMAINING_TIME: 5771
;LAYER:-1
;Z:1.380
;HEIGHT:0.380
;PRINTING: NON-OBJECT
;PRINTING_ID: -1
G0 F300 Z1.380
G0 F6000 X187.234 Y102.600
;TYPE:RAFT
;WIDTH:0.600
G1 F1800 X195.137 Y102.600 E971.8405
G0 F6000 X197.488 Y103.800
G1 F1800 X184.686 Y103.800 E973.0540
G0 F6000 X182.139 Y105.000
G1 F1800 X199.839 Y105.000 E974.7318
G0 F6000 X202.190 Y106.200
G1 F1800 X179.591 Y106.200 E976.8740
G0 F6000 X177.043 Y107.400
G1 F1800 X204.540 Y107.400 E979.4805
G0 F6000 X206.891 Y108.600
G1 F1800 X174.495 Y108.600 E982.5513
G0 F6000 X171.948 Y109.800
G1 F1800 X209.154 Y109.800 E986.0781
G0 F6000 X210.563 Y111.000
G1 F1800 X169.400 Y111.000 E989.9800
G0 F6000 X166.852 Y112.200
G1 F1800 X211.426 Y112.200 E994.2053
G0 F6000 X211.955 Y113.400
G1 F1800 X165.053 Y113.400 E998.6512
G0 F6000 X164.064 Y114.600
G1 F1800 X212.347 Y114.600 E1003.2280
