;FLAVOR:Marlin
;TIME:563
;Filament used: 0.315054m
;Layer height: 0.2
;MINX:143.878
;MINY:142.508
;MINZ:0.1
;MAXX:156.121
;MAXY:157.19
;MAXZ:13.9
;Generated with Cura_SteamEngine 5.2.2
M140 S70
M105
M190 S70
M104 S200
M105
M109 S200
M82 ;absolute extrusion mode
G28 ;Home
G1 Z15.0 F6000 ;Move the platform down 15mm
;Prime the extruder
G92 E0
G1 F200 E3
G92 E0
G92 E0
G92 E0
G1 F1500 E-6.5
;LAYER_COUNT:71
;LAYER:0
M107
G0 F2400 X145.908 Y144.057 Z0.1
;TYPE:SKIRT
G1 F1500 E0
G1 F1200 X146.499 Y143.566 E0.01278
G1 X147.266 Y143.048 E0.02817
G1 X147.836 Y142.776 E0.03867
G1 X148.761 Y142.571 E0.05443
G1 X149.179 Y142.521 E0.06143
G1 X149.927 Y142.508 E0.07387
G1 X150.629 Y142.518 E0.08555
G1 X151.594 Y142.709 E0.10191
G1 X152.07 Y142.854 E0.11018
G1 X152.74 Y143.25 E0.12312
G1 X153.401 Y143.728 E0.13669
G1 X154.005 Y144.287 E0.15038
G1 X154.635 Y145.091 E0.16736
G1 X155.095 Y146.067 E0.1853
G1 X155.379 Y147.24 E0.20538
G1 X155.448 Y147.911 E0.21659
G1 X155.431 Y148.31 E0.22323
G1 X155.305 Y149.161 E0.23754
G1 X155.069 Y150.116 E0.2539
G1 X154.932 Y150.502 E0.26071
G1 X154.585 Y151.101 E0.27222
G1 X154.267 Y151.506 E0.28079
G1 X153.589 Y152.18 E0.29669
G1 X152.686 Y152.851 E0.3154
G1 X151.769 Y153.282 E0.33225
G1 X151.23 Y153.454 E0.34165
G1 X150.33 Y153.589 E0.35679
G1 X149.497 Y153.596 E0.37064
G1 X148.71 Y153.508 E0.38381
G1 X148.286 Y153.409 E0.39105
G1 X147.56 Y153.133 E0.40397
G1 X146.905 Y152.766 E0.41645
G1 X146.056 Y152.152 E0.43388
G1 X145.393 Y151.473 E0.44966
G1 X144.925 Y150.817 E0.46306
G1 X144.723 Y150.397 E0.47081
G1 X144.559 Y149.887 E0.47972
G1 X144.383 Y149.086 E0.49336
G1 X144.267 Y148.362 E0.50555
G1 X144.243 Y147.928 E0.51278
G1 X144.306 Y147.266 E0.52384
G1 X144.557 Y146.137 E0.54307
G1 X144.942 Y145.321 E0.55808
G1 X145.155 Y144.966 E0.56496
G1 X145.634 Y144.342 E0.57805
G1 X145.908 Y144.057 E0.58462
G0 F2400 X146.043 Y144.466
G1 F1200 X146.75 Y143.877 E0.59992
G1 X147.513 Y143.364 E0.61521
G1 X148.116 Y143.123 E0.62601
G1 X149.015 Y142.924 E0.64133
G1 X150.499 Y142.9 E0.66601
G1 X151.516 Y143.102 E0.68325
G1 X152.021 Y143.289 E0.69221
G1 X152.505 Y143.574 E0.70155
G1 X153.145 Y144.037 E0.71468
G1 X153.713 Y144.562 E0.72755
G1 X154.18 Y145.159 E0.74015
G1 X154.541 Y145.788 E0.75221
G1 X154.777 Y146.451 E0.76392
G1 X154.99 Y147.333 E0.779
G1 X155.062 Y148.062 E0.79119
G1 X154.914 Y149.076 E0.80823
G1 X154.68 Y150.02 E0.8244
G1 X154.486 Y150.489 E0.83284
G1 X154.242 Y150.894 E0.84071
G1 X153.985 Y151.222 E0.84764
G1 X153.327 Y151.876 E0.86306
G1 X152.482 Y152.505 E0.88058
G1 X151.605 Y152.917 E0.8967
G1 X151.155 Y153.061 E0.90455
G1 X150.3 Y153.189 E0.91893
G1 X149.705 Y153.203 E0.92883
G1 X148.76 Y153.112 E0.94462
G1 X148.417 Y153.031 E0.95048
G1 X147.745 Y152.779 E0.96241
G1 X147.14 Y152.442 E0.97393
G1 X146.314 Y151.845 E0.99088
G1 X145.679 Y151.194 E1.006
G1 X145.264 Y150.604 E1.018
G1 X145.1 Y150.264 E1.02427
G1 X144.949 Y149.799 E1.03241
G1 X144.778 Y149.023 E1.04562
G1 X144.63 Y148.097 E1.06121
G1 X144.696 Y147.353 E1.07364
G1 X144.937 Y146.269 E1.0921
G1 X145.383 Y145.326 E1.10945
G1 X146.043 Y144.466 E1.12748
G1 F1500 E-5.37252
;MESH:Ice_Wisp_1.stl
G0 F2400 X147.575 Y145.934
G0 X148.951 Y147.973
;TYPE:WALL-INNER
G1 F1500 E1.12748
G1 F1200 X149.08 Y148.502 E1.13653
G1 X149.224 Y148.656 E1.14004
G1 X149.556 Y148.882 E1.14672
G1 X149.899 Y148.908 E1.15244
G1 X150.265 Y148.806 E1.15876
G1 X150.614 Y148.506 E1.16641
G1 X150.739 Y147.987 E1.17529
G1 X150.634 Y147.594 E1.18205
G1 X150.51 Y147.436 E1.18539
G1 X150.216 Y147.211 E1.19155
G1 X149.496 Y147.206 E1.20353
G1 X149.161 Y147.452 E1.21044
G1 X149.021 Y147.684 E1.21494
G1 X148.951 Y147.973 E1.21989
G0 F2400 X148.714 Y148.698
G1 F1200 X148.956 Y148.956 E1.22577
G1 X149.447 Y149.273 E1.23549
G1 X149.935 Y149.308 E1.24363
G1 X150.248 Y149.256 E1.2489
G1 X150.471 Y149.151 E1.253
G1 X150.746 Y148.948 E1.25869
G1 X150.98 Y148.703 E1.26432
G1 X151.156 Y148.011 E1.2762
G1 X150.993 Y147.404 E1.28665
G1 X150.808 Y147.167 E1.29165
G1 X150.385 Y146.839 E1.30055
G1 X150.236 Y146.806 E1.30309
G1 X149.373 Y146.806 E1.31744
G1 X148.871 Y147.173 E1.32778
G1 X148.731 Y147.355 E1.3316
G1 X148.641 Y147.553 E1.33522
G1 X148.532 Y148.002 E1.3429
G1 X148.714 Y148.698 E1.35486
G0 F2400 X148.14 Y147.923
G1 F1200 X148.18 Y148.24 E1.36018
G1 X148.342 Y148.894 E1.37138
G1 X148.688 Y149.255 E1.3797
G1 X149.033 Y149.512 E1.38685
G1 X149.355 Y149.665 E1.39278
G1 X149.972 Y149.707 E1.40306
G1 X150.368 Y149.641 E1.40974
G1 X150.676 Y149.497 E1.41539
G1 X151.011 Y149.249 E1.42233
G1 X151.349 Y148.898 E1.43043
G1 X151.567 Y148.01 E1.44564
G1 X151.357 Y147.23 E1.45907
G1 X151.069 Y146.85 E1.467
G1 X150.553 Y146.466 E1.47769
G1 X150.279 Y146.406 E1.48236
G1 X149.429 Y146.406 E1.4965
G1 X149.185 Y146.457 E1.50064
G1 X148.877 Y146.647 E1.50666
G1 X148.581 Y146.894 E1.51307
G1 X148.386 Y147.147 E1.51838
G1 X148.261 Y147.421 E1.52339
G1 X148.14 Y147.923 E1.53198
G0 F2400 X147.73 Y147.915
G1 F1200 X147.788 Y148.321 E1.5388
G1 X147.923 Y148.821 E1.54741
G1 X147.967 Y149.096 E1.55204
G1 X148.42 Y149.554 E1.56276
G1 X148.819 Y149.851 E1.57103
G1 X149.262 Y150.057 E1.57915
G1 X150.009 Y150.107 E1.5916
G1 X150.488 Y150.027 E1.59968
G1 X150.882 Y149.842 E1.60692
G1 X151.277 Y149.551 E1.61508
G1 X151.716 Y149.098 E1.62557
G1 X151.767 Y148.845 E1.62986
G1 X151.906 Y148.31 E1.63905
G1 X151.955 Y147.959 E1.64494
G1 X151.846 Y147.442 E1.65373
G1 X151.68 Y146.984 E1.66183
G1 X151.348 Y146.558 E1.67081
G1 X150.723 Y146.093 E1.68377
G1 X150.321 Y146.006 E1.69061
G1 X149.389 Y146.006 E1.70611
G1 X149.034 Y146.079 E1.71214
G1 X148.642 Y146.322 E1.71981
G1 X148.29 Y146.615 E1.72742
G1 X148.042 Y146.939 E1.73421
G1 X147.881 Y147.289 E1.74061
G1 X147.73 Y147.915 E1.75132
G0 F2400 X147.345 Y147.804
G1 F1200 X147.396 Y148.402 E1.7613
G1 X147.539 Y148.939 E1.77055
G1 X147.603 Y149.269 E1.77614
G1 X147.658 Y149.356 E1.77785
G1 X148.152 Y149.854 E1.78951
G1 X148.605 Y150.191 E1.7989
G1 X149.17 Y150.45 E1.80924
G1 X149.725 Y150.512 E1.81853
G1 X150.046 Y150.506 E1.82387
G1 X150.608 Y150.413 E1.83334
G1 X151.087 Y150.188 E1.84214
G1 X151.542 Y149.852 E1.85155
G1 X151.895 Y149.482 E1.86005
G1 X152.1 Y149.221 E1.86557
G1 X152.298 Y148.389 E1.87979
G1 X152.364 Y147.919 E1.88768
G1 X152.232 Y147.336 E1.89762
G1 X152.017 Y146.765 E1.90777
G1 X151.632 Y146.271 E1.91819
G1 X150.893 Y145.72 E1.93352
G1 X150.364 Y145.606 E1.94252
G1 X149.348 Y145.606 E1.95941
G1 X148.884 Y145.702 E1.96729
G1 X148.408 Y145.997 E1.9766
G1 X148 Y146.337 E1.98544
G1 X147.697 Y146.732 E1.99372
G1 X147.502 Y147.158 E2.00151
G1 X147.345 Y147.804 E2.01256
G0 F2400 X146.933 Y147.997
G1 F1200 X147.003 Y148.484 E2.02075
G1 X147.135 Y148.967 E2.02907
G1 X147.24 Y149.445 E2.03721
G1 X147.35 Y149.618 E2.04062
G1 X147.884 Y150.153 E2.05319
G1 X148.391 Y150.53 E2.0637
G1 X148.77 Y150.73 E2.07082
G1 X149.078 Y150.842 E2.07627
G1 X149.706 Y150.913 E2.08678
G1 X150.083 Y150.905 E2.09306
G1 X150.728 Y150.798 E2.10393
G1 X151.292 Y150.533 E2.11429
G1 X151.808 Y150.153 E2.12495
G1 X152.228 Y149.716 E2.13503
G1 X152.321 Y149.636 E2.13707
G1 X152.479 Y149.365 E2.14229
G1 X152.56 Y148.967 E2.14904
G1 X152.691 Y148.468 E2.15762
G1 X152.771 Y147.902 E2.16713
G1 X152.618 Y147.231 E2.17857
G1 X152.469 Y146.764 E2.18672
G1 X152.354 Y146.547 E2.19081
G1 X152 Y146.092 E2.20039
G1 X151.786 Y145.886 E2.20533
G1 X151.248 Y145.487 E2.21647
G1 X150.97 Y145.328 E2.2218
G1 X150.407 Y145.206 E2.23138
G1 X149.307 Y145.206 E2.24967
G1 X148.733 Y145.325 E2.25942
G1 X148.173 Y145.671 E2.27037
G1 X147.71 Y146.058 E2.2804
G1 X147.352 Y146.524 E2.29017
G1 X147.122 Y147.026 E2.29936
G1 X146.948 Y147.745 E2.31166
G1 X146.933 Y147.997 E2.31586
G0 F2400 X146.531 Y148.014
;TYPE:WALL-OUTER
G1 F1200 X146.611 Y148.565 E2.32512
G1 X146.752 Y149.087 E2.33411
G1 X146.797 Y149.389 E2.33919
G1 X146.878 Y149.621 E2.34327
G1 X147.042 Y149.879 E2.34836
G1 X147.616 Y150.453 E2.36186
G1 X148.177 Y150.87 E2.37348
G1 X148.607 Y151.096 E2.38156
G1 X148.986 Y151.234 E2.38827
G1 X149.688 Y151.313 E2.40002
G1 X150.12 Y151.305 E2.4072
G1 X150.848 Y151.184 E2.41947
G1 X151.498 Y150.879 E2.43141
G1 X152.074 Y150.455 E2.44331
G1 X152.489 Y150.02 E2.45331
G1 X152.633 Y149.896 E2.45647
G1 X152.859 Y149.509 E2.46392
G1 X152.947 Y149.069 E2.47138
G1 X153.084 Y148.547 E2.48036
G1 X153.16 Y148.01 E2.48938
G1 X153.145 Y147.741 E2.49386
G1 X153.004 Y147.125 E2.50437
G1 X152.839 Y146.608 E2.51339
G1 X152.692 Y146.329 E2.51864
G1 X152.298 Y145.824 E2.52929
G1 X152.045 Y145.58 E2.53513
G1 X151.468 Y145.151 E2.54709
G1 X151.115 Y144.95 E2.55384
G1 X150.449 Y144.806 E2.56518
G1 X149.266 Y144.806 E2.58485
G1 X148.583 Y144.947 E2.59645
G1 X147.939 Y145.346 E2.60905
G1 X147.42 Y145.779 E2.62029
G1 X147.007 Y146.316 E2.63155
G1 X146.742 Y146.894 E2.64213
G1 X146.55 Y147.686 E2.65568
G1 X146.531 Y148.014 E2.66114
G0 F2400 X146.559 Y148.212
G0 X147.253 Y148.113
G0 X149.341 Y147.982
;TYPE:SKIN
G1 F1200 X149.422 Y148.298 E2.66657
G1 X149.69 Y148.512 E2.67227
G1 X149.861 Y148.526 E2.67512
G1 X150.078 Y148.467 E2.67886
G1 X150.272 Y148.306 E2.68306
G1 X150.349 Y147.999 E2.68832
G1 X150.263 Y147.728 E2.69305
G1 X150.085 Y147.586 E2.69684
G1 X149.613 Y147.586 E2.70469
G1 X149.445 Y147.713 E2.70819
G1 X149.341 Y147.982 E2.71298
G0 F2400 X149.582 Y147.885
G1 F1200 X149.982 Y148.285 E2.72239
;MESH:NONMESH
G0 F600 X149.982 Y148.285 Z0.3
G0 F2400 X149.403 Y147.01
;TIME_ELAPSED:16.014500
;LAYER:1
M106 S255
;TYPE:WALL-INNER
;MESH:Ice_Wisp_1.stl
G1 F1350 X148.91 Y147.472 E2.74486
G1 X148.744 Y147.95 E2.76169
G1 X148.915 Y148.631 E2.78505
G1 X149.17 Y148.87 E2.79667
G1 X149.537 Y149.108 E2.81122
G1 X149.842 Y149.135 E2.8214
G1 X150.159 Y149.109 E2.83198
G1 X150.539 Y148.856 E2.84717
G1 X150.791 Y148.622 E2.8586
G1 X150.944 Y147.937 E2.88195
G1 X150.734 Y147.419 E2.90054
G1 X150.292 Y147.012 E2.92052
G1 X149.403 Y147.01 E2.95009
G0 F4800 X148.328 Y147.935
G1 F1350 X148.503 Y148.634 E2.97406
G1 X148.536 Y148.825 E2.9805
G1 X148.921 Y149.184 E2.99801
G1 X149.42 Y149.5 E3.01766
G1 X149.841 Y149.536 E3.03171
G1 X150.276 Y149.501 E3.04623
G1 X150.789 Y149.169 E3.06655
G1 X151.148 Y148.836 E3.08284
G1 X151.359 Y147.916 E3.11423
G1 X151.197 Y147.437 E3.13105
G1 X151.061 Y147.182 E3.14066
G1 X150.465 Y146.653 E3.16717
G1 X150.274 Y146.612 E3.17366
G1 X149.457 Y146.61 E3.20084
G1 X149.218 Y146.661 E3.20896
G1 X148.864 Y146.938 E3.22391
G1 X148.551 Y147.271 E3.23911
G1 X148.328 Y147.935 E3.26241
G0 F4800 X147.935 Y147.854
G1 F1350 X147.944 Y148.049 E3.2689
G1 X148.115 Y148.731 E3.29229
G1 X148.163 Y149.026 E3.30223
G1 X148.671 Y149.498 E3.32529
G1 X149.304 Y149.891 E3.35008
G1 X149.84 Y149.937 E3.36797
G1 X150.445 Y149.887 E3.38816
G1 X151.039 Y149.483 E3.41205
G1 X151.541 Y149.017 E3.43483
G1 X151.577 Y148.755 E3.44363
G1 X151.765 Y147.913 E3.47232
G1 X151.765 Y147.867 E3.47385
G1 X151.565 Y147.278 E3.49454
G1 X151.388 Y146.946 E3.50706
G1 X151.127 Y146.674 E3.5196
G1 X150.62 Y146.277 E3.54101
G1 X150.317 Y146.212 E3.55132
G1 X149.416 Y146.21 E3.58129
G1 X149.072 Y146.283 E3.59298
G1 X148.591 Y146.645 E3.61301
G1 X148.279 Y146.976 E3.62814
G1 X148.153 Y147.202 E3.63674
G1 X147.935 Y147.854 E3.65961
G0 F4800 X147.533 Y147.802
G1 F1350 X147.547 Y148.107 E3.66976
G1 X147.762 Y148.969 E3.69931
G1 X147.768 Y149.212 E3.7074
G1 X148.421 Y149.812 E3.73689
G1 X148.847 Y150.1 E3.75399
G1 X149.199 Y150.284 E3.7672
G1 X149.839 Y150.339 E3.78857
G1 X150.509 Y150.285 E3.81093
G1 X150.829 Y150.11 E3.82306
G1 X151.289 Y149.797 E3.84156
G1 X151.928 Y149.201 E3.87062
G1 X151.967 Y148.844 E3.88257
G1 X152.163 Y147.989 E3.91174
G1 X152.165 Y147.92 E3.91404
G1 X152.167 Y147.804 E3.9179
G1 X151.933 Y147.118 E3.94201
G1 X151.715 Y146.709 E3.95742
G1 X151.402 Y146.382 E3.97248
G1 X150.774 Y145.9 E3.99881
G1 X150.359 Y145.812 E4.01292
G1 X149.375 Y145.81 E4.04565
G1 X148.926 Y145.905 E4.06091
G1 X148.708 Y146.032 E4.0693
G1 X148.317 Y146.351 E4.08608
G1 X147.966 Y146.724 E4.10312
G1 X147.781 Y147.052 E4.11564
G1 X147.533 Y147.802 E4.14192
G0 F4800 X147.129 Y147.726
G1 F1350 X147.149 Y148.166 E4.15657
G1 X147.364 Y149.026 E4.18605
G1 X147.368 Y149.282 E4.19457
G1 X147.425 Y149.433 E4.19994
G1 X147.629 Y149.621 E4.20916
G1 X148.171 Y150.126 E4.2338
G1 X148.64 Y150.443 E4.25263
G1 X149.071 Y150.675 E4.26891
G1 X149.838 Y150.74 E4.29451
G1 X150.626 Y150.677 E4.3208
G1 X151.039 Y150.451 E4.33646
G1 X151.539 Y150.11 E4.35659
G1 X152.124 Y149.567 E4.38314
G1 X152.323 Y149.318 E4.39374
G1 X152.357 Y148.934 E4.40656
G1 X152.562 Y148.038 E4.43713
G1 X152.565 Y147.928 E4.44079
G1 X152.568 Y147.741 E4.44701
G1 X152.301 Y146.959 E4.4745
G1 X152.043 Y146.473 E4.4928
G1 X151.677 Y146.091 E4.5104
G1 X151.264 Y145.74 E4.52842
G1 X150.929 Y145.524 E4.54168
G1 X150.402 Y145.412 E4.5596
G1 X149.333 Y145.41 E4.59515
G1 X148.781 Y145.527 E4.61392
G1 X148.479 Y145.702 E4.62553
G1 X148.044 Y146.058 E4.64423
G1 X147.653 Y146.473 E4.66319
G1 X147.41 Y146.903 E4.67962
G1 X147.129 Y147.726 E4.70854
G0 F4800 X146.726 Y147.674
G1 F1350 X146.751 Y148.224 E4.72686
G1 X146.967 Y149.086 E4.75641
G1 X146.967 Y149.353 E4.76529
G1 X147.07 Y149.629 E4.77509
G1 X147.356 Y149.914 E4.78852
G1 X147.921 Y150.44 E4.81419
G1 X148.432 Y150.786 E4.83472
G1 X148.884 Y151.029 E4.85179
G1 X149.063 Y151.076 E4.85794
G1 X149.837 Y151.141 E4.88378
G1 X150.571 Y151.083 E4.90827
G1 X150.828 Y151.023 E4.91704
G1 X151.248 Y150.793 E4.93297
G1 X151.789 Y150.424 E4.95475
G1 X152.421 Y149.839 E4.9834
G1 X152.674 Y149.532 E4.99663
G1 X152.721 Y149.391 E5.00157
G1 X152.747 Y149.023 E5.01384
G1 X152.962 Y148.087 E5.04578
G1 X152.965 Y147.936 E5.05081
G1 X152.969 Y147.679 E5.05935
G1 X152.669 Y146.799 E5.09028
G1 X152.37 Y146.236 E5.11148
G1 X151.952 Y145.8 E5.13157
G1 X151.503 Y145.418 E5.15118
G1 X151.084 Y145.148 E5.16776
G1 X150.444 Y145.012 E5.18952
G1 X149.292 Y145.01 E5.22783
G1 X148.635 Y145.149 E5.25017
G1 X148.25 Y145.372 E5.26497
G1 X147.771 Y145.765 E5.28557
G1 X147.34 Y146.222 E5.30647
G1 X147.038 Y146.753 E5.32679
G1 X146.726 Y147.674 E5.35913
G0 F4800 X146.323 Y147.616
;TYPE:WALL-OUTER
G1 F1050 X146.353 Y148.282 E5.3813
G1 X146.568 Y149.15 E5.41104
G1 X146.567 Y149.423 E5.42012
G1 X146.716 Y149.825 E5.43438
G1 X146.893 Y150.056 E5.44406
G1 X147.084 Y150.207 E5.45216
G1 X147.671 Y150.754 E5.47885
G1 X148.224 Y151.128 E5.50105
G1 X148.736 Y151.404 E5.5204
G1 X148.995 Y151.472 E5.5293
G1 X149.836 Y151.543 E5.55738
G1 X150.633 Y151.479 E5.58397
G1 X150.972 Y151.4 E5.59555
G1 X151.457 Y151.135 E5.61393
G1 X152.039 Y150.738 E5.63736
G1 X152.677 Y150.147 E5.66629
G1 X152.79 Y150.062 E5.67099
G1 X153.035 Y149.714 E5.68514
G1 X153.119 Y149.464 E5.69392
G1 X153.137 Y149.113 E5.70561
G1 X153.361 Y148.136 E5.73894
G1 X153.365 Y147.944 E5.74533
G1 X153.371 Y147.616 E5.75624
G1 X153.037 Y146.639 E5.79058
G1 X152.697 Y146 E5.81466
G1 X152.227 Y145.508 E5.83729
G1 X151.742 Y145.096 E5.85845
G1 X151.238 Y144.772 E5.87838
G1 X150.486 Y144.612 E5.90395
G1 X149.25 Y144.61 E5.94506
G1 X148.489 Y144.771 E5.97093
G1 X148.022 Y145.042 E5.98889
G1 X147.497 Y145.471 E6.01144
G1 X147.027 Y145.97 E6.03424
G1 X146.821 Y146.273 E6.04643
G1 X146.666 Y146.603 E6.05856
G1 X146.323 Y147.616 E6.09413
G0 F4800 X146.332 Y147.816
G0 X147.03 Y147.785
G0 X149.254 Y148.428
;TYPE:SKIN
G1 F1500 X149.65 Y148.732 E6.11073
G1 X150.039 Y148.732 E6.12367
G1 X150.441 Y148.421 E6.14057
G1 X150.503 Y148.152 E6.14976
G1 X150.547 Y147.962 E6.15624
G1 X150.417 Y147.642 E6.16773
G1 X150.151 Y147.395 E6.1798
G1 X149.549 Y147.391 E6.19983
G1 X149.235 Y147.687 E6.21418
G1 X149.14 Y147.965 E6.22395
